!!!Xfilter: transpose -t P8
!!!OTL: 701. Die Unbestaendige. / [Du biat von Flandern.]
!!!ODT: 1840
!!!ARE: Europa, Mitteleuropa, Deutschland, Schlesien; Brandenburg
!!!SCT: E0701
!!!TXL: @@DE
!!!YEM: Copyright 1995, estate of Helmut Schaffrath.
**kern	**text
*ICvox	*
*M3/4	*
*k[]	*
*C:	*
=1	=1
!LO:TX:a:t=Mäßig bewegt.	!
!LO:TX:a:t=Aus Schlesien u. Brandenburg, 1840.	!
{8cc	Schö-
8b	-ne
8cc	Au-
8a	-gen,
8g	ſchö-
8a	-ne
=2	=2
(4g	Strah-
4f)	.
4e}	-len,
=3	=3
{8cc	ſchö-
8b	-ne
8cc	ro-
8a	-the
8g	Wan-
8a	-gen
=4	=4
(4g	prah-
4f)	.
4e}	-len,
=5	=5
{8cc	ſchö-
8ee	-ne
8ee	ro-
8ee	-the
8ee	Lip-
8cc	-pen,
=6	=6
8b	ſchö-
8dd	-ne
8dd	Mar-
8dd	-mor-
8dd	-klip-
8b}	-pen,
=7	=7
{8ccL	liebt
8aJ	.
4g	mein
4b	Ge-
=8	=8
4cc	-ſicht.
4r	.
4r}	.
==	==
!!!AGN: Liebes - Lied, Leid, Klage
!!!ONB: ESAC (Essen Associative Code) Database: ERK2
!!!AMT: simple triple
!!!AIN: vox
!!!EED: Helmut Schaffrath
!!!EEV: 1.0
!!!GTL: Liebeslieder [Neuere (aus dem 18. bis 19. Jahrh.) - Liebesleid] 678-740
!!!URL-scan: https://rosdok.uni-rostock.de/mcrviewer/recordIdentifier/rosdok_ppn745177662/iview2/phys_0506.iview2?x=193.8995864193107&y=276.76330051617697&scale=0.7029437510502773&rotation=0&layout=singlePageLayout
!!!ENC: Anna Maria Matuszewska
!!!EEV: 2024/12/16
*-	*-
